packages/netlify-cms-ui-default/src/Icon/images/bitbucket.svg

<svg height="26" viewBox="0 0 26 26" width="26"><path d="m2.77580579 3.0000546c-.19357738-.00249667-.37835125.08073297-.50475611.2273626-.12640485.14662963-.18150159.3416499-.15051053.53274671l2.7816069 16.88622139c.07153877.4265443.43901766.7401447.87150464.7437276h13.34450521c.3246143.004178.6033509-.2299607.6552666-.5504239l2.7816069-17.07624876c.0309911-.19109681-.0241057-.38611707-.1505105-.53274671-.1264049-.14662963-.3111787-.22985927-.5047561-.22736259zm11.71289121 12.2043412h-4.2592331l-1.15326933-6.02517675h6.44454743z" fill="#2684ff"/></svg>

<svg width="26px" height="26px" viewBox="0 0 26 26" version="1.1">
  <path d="M2.77580579,3.0000546 C2.58222841,2.99755793 2.39745454,3.08078757 2.27104968,3.2274172 C2.14464483,3.37404683 2.08954809,3.5690671 2.12053915,3.76016391 L4.90214605,20.6463853 C4.97368482,21.0729296 5.34116371,21.38653 5.77365069,21.3901129 L19.1181559,21.3901129 C19.4427702,21.3942909 19.7215068,21.1601522 19.7734225,20.839689 L22.5550294,3.76344024 C22.5860205,3.57234343 22.5309237,3.37732317 22.4045189,3.23069353 C22.278114,3.0840639 22.0933402,3.00083426 21.8997628,3.00333094 L2.77580579,3.0000546 Z M14.488697,15.2043958 L10.2294639,15.2043958 L9.07619457,9.17921905 L15.520742,9.17921905 L14.488697,15.2043958 Z" id="Shape" fill="#2684FF" fill-rule="nonzero"/>
</svg>
